packages/ui-icons/svg/Solid/like.svg

<svg viewBox="0 0 1920 1920" version="1.1" xmlns="http://www.w3.org/2000/svg">
    <path d="M1863.05882,1016.47059 C1863.05882,891.896471 1761.75059,790.588235 1637.17647,790.588235 L1203.36941,790.588235 C1183.71765,790.588235 1166.32471,781.214118 1155.70824,764.724706 C1145.31765,748.574118 1143.84941,729.148235 1151.86824,711.529412 C1206.64471,590.456471 1246.73882,464.414118 1271.24706,337.016471 C1287.17176,253.44 1265.37412,167.943529 1211.16235,102.437647 C1157.28941,37.3835294 1078.00471,0 993.750588,0 L846.588235,0 L846.588235,56.4705882 C846.588235,310.927059 691.52,529.694118 561.524706,668.498824 C488.790588,745.976471 384.545882,790.588235 275.557647,790.588235 L56,790.588235 L56,1524.70588 C56,1742.68235 233.317647,1920 451.294118,1920 L1411.29412,1920 C1535.86824,1920 1637.17647,1818.69176 1637.17647,1694.11765 C1637.17647,1647.69882 1623.05882,1604.44235 1599.00235,1568.52706 C1686.87059,1537.58118 1750.11765,1453.66588 1750.11765,1355.29412 C1750.11765,1308.87529 1736,1265.61882 1711.94353,1229.70353 C1799.81176,1198.75765 1863.05882,1114.84235 1863.05882,1016.47059" stroke="none" stroke-width="1" fill-rule="evenodd"/>
</svg>

<svg viewBox="0 0 1920 1920" version="1.1" xmlns="http://www.w3.org/2000/svg">
    <path d="M1863.059 1016.47c0-124.574-101.308-225.882-225.883-225.882H1203.37c-19.651 0-37.044-9.374-47.66-25.863-10.391-16.15-11.86-35.577-3.84-53.196 54.776-121.073 94.87-247.115 119.378-374.513 15.925-83.576-5.873-169.072-60.085-234.578C1157.29 37.384 1078.005 0 993.751 0H846.588v56.47c0 254.457-155.068 473.224-285.063 612.029-72.734 77.477-176.98 122.09-285.967 122.09H56v734.117C56 1742.682 233.318 1920 451.294 1920h960c124.574 0 225.882-101.308 225.882-225.882 0-46.42-14.117-89.676-38.174-125.59 87.869-30.947 151.116-114.862 151.116-213.234 0-46.419-14.118-89.675-38.174-125.59 87.868-30.946 151.115-114.862 151.115-213.233" stroke="none" stroke-width="1" fill-rule="evenodd"/>
</svg>
